X:442
T:Piler Lan
Z:Jack Campin, http://www.campin.me.uk/
F:Jack Campin's Nine-Note Tunebook
% last edit 03-02-2013
B:Lawson, European Folk Dance
M:4/4
L:1/8
Q:1/4=120 % guess
K:F
        FF AG FE F2|[M:5/4] FG AB c2 c4 |
[M:4/4] cc dc BA G2|[M:5/4] BB dc BA F4:|
[M:4/4] FG FG A2 A2|[M:5/4] Ac BA G2 G4 |
[M:4/4] cc dc BA G2|[M:5/4] AB AG c2 c4 |
[M:4/4] cc dc BA G2|[M:5/4] AB AG F2 F4:| 


% == Spanish songs and dances ===============================================

